X:1
T:The Japanese
R:hornpipe
M:4/4
L:1/8
K:A
cd|:(3efe ^de =dece|(3BcB AB GBFB|EFGA Bcde|fe^de c2c=d|
|(3efe ^de =dece|(3BcB AB GBFB|EFGA Bcde|1 fe (3dcB Aagf:|2 fe (3dcB Acea|]
|:c'eaa eac'a|e'2b2 bbec'|b2b2 b2ac'|e'2a2 aaea|
|c'eaa eac'a|e'2b2 bbef|g2ga gedB|1 (3ABA GB Acea:|2 (3ABA GB Aagf|]